archdroid-icon-theme/Archdroid-Shamrock/places/scalable/folder-collection-xfce.svg

<svg fill="#00E676" height="48" viewBox="0 0 48 48" width="48" xmlns="http://www.w3.org/2000/svg"><g fill="#00E676"><path d="m8 12h-4v28c0 2.21 1.79 4 4 4h28v-4h-28z"/><path d="m16 4c-2.21 0-4 1.79-4 4v24c0 2.21 1.79 4 4 4h24c2.21 0 4-1.79 4-4v-24c0-2.21-1.79-4-4-4zm-.894531 9.095703c.081868-.013695 2.123969 1.063185 3.496094 1.435547 2.446755.62527 4.680265 2.506869 5.759765 3.587891.080042.09252.925953-.634378 1.8125-.582032 1.210976.073347 4.958342 1.127642 5.458985.410157.30358-.421209.281402-.938721.660156-1.150391.203909-.057064-.756659-1.815265.265625-2.378906.728898-.364297 1.346033 1.675736 1.533203 1.904297.083846.102258.529213.125551.476562-.107422-.057064-.25306-.776818-2.208725.105469-2.53711 1.432993-.567445 1.177562 2.504451 1.214844 2.591797.079281.185953 4.991264.327893 5.289062 2.53711.172258 1.215845-3.934206 2.788365-4.335937 3.068359-.401579.279994-.367521.726803-.210938 1.003906.180019.300538 1.374928 1.315686 1.214844 1.798828-.110019.279082-2.341791-.744314-2.484375-.529296-.325189.410709 1.624832 1.438461.951172 2.167968-.26706.174692-3.339792-1.286726-3.332031-1.269531-.082477.031347-4.341431.778782-7.615235-.210937-.115345-.032565-2.10035 1.918669-2.326171 1.851562-.308755-.113215.454051-1.69675.36914-2.009766-.13878-.174387-1.407427.70725-1.480469.263672-.087346-.582966 1.114441-1.25231 1.058594-1.638672-.309668-2.194912.137735-3.477393.898438-4.548828.253668-.394427-2.982157-2.836626-5.324219-3.800781-2.34191-.964155-3.594315-1.781184-3.455078-1.857422zm24.996094 1.978516c.12904.094041-.116446 1.916305-.257813 1.810547-.164649-.080042.190705-1.888459.257813-1.810547zm1.222656.236328c.060564.059803-.823477 1.84404-.964844 1.738281-.235104-.174083.82926-1.850431.964844-1.738281zm-4.839844 1.917969a.424106.482868 0 0 0 -.394531.482422.424106.482868 0 0 0 .425781.482421.424106.482868 0 0 0 .423828-.482421.424106.482868 0 0 0 -.423828-.482422.424106.482868 0 0 0 -.03125 0zm-.921875.292968c-.421665.298103.232466 1.985002 1.306641 1-.84394.024804-1.126471-.222254-1.306641-1zm2.275391 2.033204c-.467988.037955-1.70805.800348-1.685547.878906.014912.113976 2.257171-.692315 1.833984-.845703-.029388-.028228-.081582-.038626-.148437-.033203zm.335937.527343c-.273603-.141062-1.389134 1.159661-1.246094 1.246094-.018717.030891 1.645543-.849232 1.246094-1.246094z"/></g></svg>

<svg fill="#00E676" height="48" version="1.1" viewBox="0 0 48 48" width="48" xmlns="http://www.w3.org/2000/svg"><path d="m8 12l-4 0 0 28c0 2.21 1.79 4 4 4l28 0 0-4-28 0 0-28z"/><path d="M16 4C13.79 4 12 5.79 12 8L12 32C12 34.21 13.79 36 16 36L40 36C42.21 36 44 34.21 44 32L44 8C44 5.79 42.21 4 40 4L16 4zM15.105469 13.095703C15.187337 13.082008 17.229438 14.158888 18.601563 14.53125 21.048318 15.15652 23.281828 17.038119 24.361328 18.119141 24.44137 18.211661 25.287281 17.484763 26.173828 17.537109 27.384804 17.610456 31.13217 18.664751 31.632813 17.947266 31.936393 17.526057 31.914215 17.008545 32.292969 16.796875 32.496878 16.739811 31.53631 14.98161 32.558594 14.417969 33.287492 14.053672 33.904627 16.093705 34.091797 16.322266 34.175643 16.424524 34.62101 16.447817 34.568359 16.214844 34.511295 15.961784 33.791541 14.006119 34.673828 13.677734 36.106821 13.110289 35.85139 16.182185 35.888672 16.269531 35.967953 16.455484 40.879936 16.597424 41.177734 18.806641 41.349992 20.022486 37.243528 21.595006 36.841797 21.875 36.440218 22.154994 36.474276 22.601803 36.630859 22.878906 36.810878 23.179444 38.005787 24.194592 37.845703 24.677734 37.735684 24.956816 35.503912 23.93342 35.361328 24.148438 35.036139 24.559147 36.98616 25.586899 36.3125 26.316406 36.04544 26.491098 32.972708 25.02968 32.980469 25.046875 32.897992 25.078222 28.639038 25.825657 25.365234 24.835938 25.249889 24.803373 23.264884 26.754607 23.039063 26.6875 22.730308 26.574285 23.493114 24.99075 23.408203 24.677734 23.269423 24.503347 22.000776 25.384984 21.927734 24.941406 21.840388 24.35844 23.042175 23.689096 22.986328 23.302734 22.67666 21.107822 23.124063 19.825341 23.884766 18.753906 24.138434 18.359479 20.902609 15.91728 18.560547 14.953125 16.218637 13.98897 14.966232 13.171941 15.105469 13.095703zM40.101563 15.074219C40.230603 15.16826 39.985117 16.990524 39.84375 16.884766 39.679101 16.804724 40.034455 14.996307 40.101563 15.074219zM41.324219 15.310547C41.384783 15.37035 40.500742 17.154587 40.359375 17.048828 40.124271 16.874745 41.188635 15.198397 41.324219 15.310547zM36.484375 17.228516A.424106.482868 0 0 0 36.089844 17.710938.424106.482868 0 0 0  36.515625 18.193359.424106.482868 0 0 0  36.939453 17.710938.424106.482868 0 0 0  36.515625 17.228516.424106.482868 0 0 0  36.484375 17.228516zM35.5625 17.521484C35.140835 17.819587 35.794966 19.506486 36.869141 18.521484 36.025201 18.546288 35.74267 18.29923 35.5625 17.521484zM37.837891 19.554688C37.369903 19.592643 36.129841 20.355036 36.152344 20.433594 36.167256 20.54757 38.409515 19.741279 37.986328 19.587891 37.95694 19.559663 37.904746 19.549265 37.837891 19.554688zM38.173828 20.082031C37.900225 19.940969 36.784694 21.241692 36.927734 21.328125 36.909017 21.359016 38.573277 20.478893 38.173828 20.082031z"/></svg>
